lib/svgs/solid/tractor.svg

<svg xmlns="http://www.w3.org/2000/svg" viewBox="0 0 640 512"><!--! Font Awesome Free 6.1.1 by @fontawesome - https://fontawesome.com License - https://fontawesome.com/license/free (Icons: CC BY 4.0, Fonts: SIL OFL 1.1, Code: MIT License) Copyright 2022 Fonticons, Inc. --><path d="M96 64C96 28.65 124.7 0 160 0H266.3C292.5 0 316 15.93 325.8 40.23L373.7 160H480V126.2C480 101.4 485.8 76.88 496.9 54.66L499.4 49.69C507.3 33.88 526.5 27.47 542.3 35.38C558.1 43.28 564.5 62.5 556.6 78.31L554.1 83.28C547.5 96.61 544 111.3 544 126.2V160H600C622.1 160 640 177.9 640 200V245.4C640 261.9 631.5 277.3 617.4 286.1L574.1 313.2C559.9 307.3 544.3 304 528 304C488.7 304 453.9 322.9 431.1 352H352C352 369.7 337.7 384 320 384H311.8C310.1 388.8 308.2 393.5 305.1 398.1L311.8 403.9C324.3 416.4 324.3 436.6 311.8 449.1L289.1 471.8C276.6 484.3 256.4 484.3 243.9 471.8L238.1 465.1C233.5 468.2 228.8 470.1 224 471.8V480C224 497.7 209.7 512 192 512H160C142.3 512 128 497.7 128 480V471.8C123.2 470.1 118.5 468.2 113.9 465.1L108.1 471.8C95.62 484.3 75.36 484.3 62.86 471.8L40.24 449.1C27.74 436.6 27.74 416.4 40.24 403.9L46.03 398.1C43.85 393.5 41.9 388.8 40.19 384H32C14.33 384 0 369.7 0 352V320C0 302.3 14.33 288 32 288H40.19C41.9 283.2 43.85 278.5 46.03 273.9L40.24 268.1C27.74 255.6 27.74 235.4 40.24 222.9L62.86 200.2C71.82 191.3 84.78 188.7 96 192.6L96 64zM160 64V160H304.7L266.3 64H160zM176 256C131.8 256 96 291.8 96 336C96 380.2 131.8 416 176 416C220.2 416 256 380.2 256 336C256 291.8 220.2 256 176 256zM440 424C440 394.2 454.8 367.9 477.4 352C491.7 341.9 509.2 336 528 336C530.7 336 533.3 336.1 535.9 336.3C580.8 340.3 616 378.1 616 424C616 472.6 576.6 512 528 512C479.4 512 440 472.6 440 424zM528 448C541.3 448 552 437.3 552 424C552 410.7 541.3 400 528 400C514.7 400 504 410.7 504 424C504 437.3 514.7 448 528 448z"/></svg>

<svg xmlns="http://www.w3.org/2000/svg" viewBox="0 0 640 512"><!--! Font Awesome Free 6.5.1 by @fontawesome - https://fontawesome.com License - https://fontawesome.com/license/free (Icons: CC BY 4.0, Fonts: SIL OFL 1.1, Code: MIT License) Copyright 2023 Fonticons, Inc. --><path d="M96 64c0-35.3 28.7-64 64-64H266.3c26.2 0 49.7 15.9 59.4 40.2L373.7 160H480V126.2c0-24.8 5.8-49.3 16.9-71.6l2.5-5c7.9-15.8 27.1-22.2 42.9-14.3s22.2 27.1 14.3 42.9l-2.5 5c-6.7 13.3-10.1 28-10.1 42.9V160h56c22.1 0 40 17.9 40 40v45.4c0 16.5-8.5 31.9-22.6 40.7l-43.3 27.1c-14.2-5.9-29.8-9.2-46.1-9.2c-39.3 0-74.1 18.9-96 48H352c0 17.7-14.3 32-32 32h-8.2c-1.7 4.8-3.7 9.5-5.8 14.1l5.8 5.8c12.5 12.5 12.5 32.8 0 45.3l-22.6 22.6c-12.5 12.5-32.8 12.5-45.3 0l-5.8-5.8c-4.6 2.2-9.3 4.1-14.1 5.8V480c0 17.7-14.3 32-32 32H160c-17.7 0-32-14.3-32-32v-8.2c-4.8-1.7-9.5-3.7-14.1-5.8l-5.8 5.8c-12.5 12.5-32.8 12.5-45.3 0L40.2 449.1c-12.5-12.5-12.5-32.8 0-45.3l5.8-5.8c-2.2-4.6-4.1-9.3-5.8-14.1H32c-17.7 0-32-14.3-32-32V320c0-17.7 14.3-32 32-32h8.2c1.7-4.8 3.7-9.5 5.8-14.1l-5.8-5.8c-12.5-12.5-12.5-32.8 0-45.3l22.6-22.6c9-9 21.9-11.5 33.1-7.6V192 160 64zm170.3 0H160v96h32H304.7L266.3 64zM176 256a80 80 0 1 0 0 160 80 80 0 1 0 0-160zM528 448a24 24 0 1 0 0-48 24 24 0 1 0 0 48zm0 64c-48.6 0-88-39.4-88-88c0-29.8 14.8-56.1 37.4-72c14.3-10.1 31.8-16 50.6-16c2.7 0 5.3 .1 7.9 .3c44.9 4 80.1 41.7 80.1 87.7c0 48.6-39.4 88-88 88z"/></svg>
